X: 1423
T: Fair Go Polka
B: australian traditional tunes wiki
M:2/4
L:1/16
R: Polka
Q: 1/4=100
K:G
V:1 
D2|"G"G2B2 BcBA|G2B2 d3e|d2B2 "D"A2BA|"G"G4-G2D2|G2B2 BcBA|G2B2 d2e2|d2B2 "D"A2BA|"G"G4-G2d2|
"G"g2~f2 e2d2|e2d2 B3d|g2~f2 e2fg|"A"a4-adef|"G"g2f2 e2dd|"C"e2f2 g2ge|"G"d2(3BdB "D"A2B2|"G"G4G4||
% abcbook-tune_id 6342d53a5bd2ce5e372ebf80


% abcbook-boost 0
% abcbook-tablature 
% abcbook-transpose 
% abcbook-lastupdated 1665324364372
% abcbook-soundfonts 
% abcbook-repeats 1
% NFF Book 2007

